packages/icons/svg/24/Image.svg

<svg width="24" height="24" viewBox="0 0 24 24" fill="none" xmlns="http://www.w3.org/2000/svg">
<path fill-rule="evenodd" clip-rule="evenodd" d="M6 4C4.34315 4 3 5.34315 3 7V17C3 18.6569 4.34315 20 6 20H18C19.6569 20 21 18.6569 21 17V7C21 5.34315 19.6569 4 18 4H6ZM19 12.5L15 14.5L9 11.5L5 13.5V17C5 17.5523 5.44772 18 6 18H18C18.5523 18 19 17.5523 19 17V12.5ZM18 9C18 10.1046 17.1046 11 16 11C14.8954 11 14 10.1046 14 9C14 7.89543 14.8954 7 16 7C17.1046 7 18 7.89543 18 9Z" fill="#858585"/>
</svg>

<svg width="24" height="24" fill="none" xmlns="http://www.w3.org/2000/svg" viewBox="0 0 24 24"><path fill-rule="evenodd" clip-rule="evenodd" d="M6 4a3 3 0 00-3 3v10a3 3 0 003 3h12a3 3 0 003-3V7a3 3 0 00-3-3H6zm13 8.5l-4 2-6-3-4 2V17a1 1 0 001 1h12a1 1 0 001-1v-4.5zM18 9a2 2 0 11-4 0 2 2 0 014 0z" fill="currentColor"></path></svg>
